public/assets/img/pollution-icon.svg

<svg xmlns:dc="http://purl.org/dc/elements/1.1/" xmlns:cc="http://creativecommons.org/ns#" xmlns:rdf="http://www.w3.org/1999/02/22-rdf-syntax-ns#" xmlns:svg="http://www.w3.org/2000/svg" xmlns="http://www.w3.org/2000/svg" viewBox="0 0 64 81.25" version="1.1" xml:space="preserve" style="" x="0px" y="0px" fill-rule="evenodd" clip-rule="evenodd" stroke-linecap="round" stroke-linejoin="round" stroke-miterlimit="2"><path style="color:#000000;font-style:normal;font-variant:normal;font-weight:normal;font-stretch:normal;font-size:medium;line-height:normal;font-family:sans-serif;font-variant-ligatures:normal;font-variant-position:normal;font-variant-caps:normal;font-variant-numeric:normal;font-variant-alternates:normal;font-variant-east-asian:normal;font-feature-settings:normal;font-variation-settings:normal;text-indent:0;text-align:start;text-decoration:none;text-decoration-line:none;text-decoration-style:solid;text-decoration-color:#000000;letter-spacing:normal;word-spacing:normal;text-transform:none;writing-mode:lr-tb;direction:ltr;text-orientation:mixed;dominant-baseline:auto;baseline-shift:baseline;text-anchor:start;white-space:normal;shape-padding:0;shape-margin:0;inline-size:0;clip-rule:nonzero;display:inline;overflow:visible;visibility:visible;isolation:auto;mix-blend-mode:normal;color-interpolation:sRGB;color-interpolation-filters:linearRGB;solid-color:#000000;solid-opacity:1;vector-effect:none;fill:#000000;fill-opacity:1;fill-rule:nonzero;stroke:none;stroke-width:1.5px;stroke-linecap:butt;stroke-linejoin:miter;stroke-miterlimit:2;stroke-dasharray:none;stroke-dashoffset:0;stroke-opacity:1;filter-blend-mode:normal;filter-gaussianBlur-deviation:0;color-rendering:auto;image-rendering:auto;shape-rendering:auto;text-rendering:auto;enable-background:accumulate;stop-color:#000000;stop-opacity:1;opacity:1" d="M 28.435547 6.75 A 0.75 0.75 0 0 0 27.8125 7.09375 C 27.677239 7.3038637 27.572552 7.5295999 27.457031 7.75 L 19 7.75 C 15.295334 7.75 12.273572 10.757382 12.25 14.457031 A 0.750075 0.750075 0 0 0 12.25 14.460938 L 12.25 14.5 C 12.25 16.922512 13.565243 19.00896 15.490234 20.199219 C 15.269763 20.695638 15 21.174923 15 21.75 C 15 23.949797 16.800203 25.75 19 25.75 C 20.366121 25.75 21.486789 24.980654 22.208984 23.927734 C 22.47073 23.959884 22.729866 24 23 24 C 25.154514 24 26.993178 22.871732 28.175781 21.25 L 30.65625 21.25 C 30.686377 23.728672 32.711775 25.75 35.197266 25.75 C 36.782816 25.75 38.089373 24.851158 38.904297 23.613281 C 39.225345 23.655491 39.545241 23.703125 39.876953 23.703125 C 42.600117 23.703125 44.951463 22.209302 46.257812 20.023438 L 50.136719 20.023438 C 52.360484 20.023438 54.494047 19.138766 56.066406 17.566406 C 57.638766 15.994047 58.523437 13.860484 58.523438 11.636719 C 58.523438 10.01359 58.052758 8.4377549 57.1875 7.09375 A 0.75 0.75 0 0 0 56.150391 6.8691406 A 0.75 0.75 0 0 0 55.925781 7.90625 C 56.636523 9.0102451 57.023438 10.303847 57.023438 11.636719 C 57.023438 13.462953 56.2975 15.214219 55.005859 16.505859 C 53.714219 17.7975 51.962953 18.523438 50.136719 18.523438 L 45.875 18.523438 A 0.750075 0.750075 0 0 0 45.207031 18.931641 C 44.21946 20.87037 42.206829 22.203125 39.876953 22.203125 C 39.50539 22.203125 39.141098 22.168427 38.789062 22.103516 A 0.75 0.75 0 0 0 38.767578 22.099609 A 0.750075 0.750075 0 0 0 38.703125 22.089844 C 38.703125 22.089844 38.649142 22.106434 38.277344 21.908203 C 37.905545 21.709972 37.311636 21.305751 36.546875 20.488281 A 0.75 0.75 0 0 0 36.03125 20.25 A 0.75 0.75 0 0 0 35.488281 20.453125 A 0.75 0.75 0 0 0 35.453125 21.511719 C 36.280693 22.396325 36.974442 22.901216 37.503906 23.193359 C 36.945304 23.838633 36.122605 24.25 35.197266 24.25 C 33.505367 24.25 32.146484 22.889165 32.146484 21.197266 C 32.146484 20.999204 32.16541 20.809373 32.201172 20.625 A 0.750075 0.750075 0 0 0 31.40625 19.734375 C 31.273186 19.744811 31.136769 19.75 31 19.75 L 28.980469 19.75 C 29.097184 19.119134 29.087104 18.265726 28.703125 17.238281 A 0.75 0.75 0 0 0 27.962891 16.75 A 0.75 0.75 0 0 0 27.738281 16.796875 A 0.75 0.75 0 0 0 27.296875 17.761719 C 27.614628 18.611958 27.580511 19.19574 27.496094 19.566406 C 27.411676 19.937073 27.316406 20.035156 27.316406 20.035156 A 0.75 0.75 0 0 0 27.300781 20.056641 A 0.750075 0.750075 0 0 0 27.279297 20.087891 A 0.75 0.75 0 0 0 27.267578 20.103516 A 0.750075 0.750075 0 0 0 27.265625 20.107422 C 26.386397 21.541495 24.809699 22.5 23 22.5 C 22.681575 22.5 22.373162 22.470589 22.072266 22.414062 A 0.750075 0.750075 0 0 0 21.255859 22.826172 C 20.853194 23.666083 19.99943 24.25 19 24.25 C 17.611797 24.25 16.5 23.138203 16.5 21.75 C 16.5 21.211328 16.667602 20.720207 16.955078 20.3125 A 0.750075 0.750075 0 0 0 16.673828 19.208984 C 14.942491 18.35206 13.75 16.570318 13.75 14.5 L 13.75 14.464844 L 13.75 14.460938 C 13.77055 11.570441 16.103999 9.25 19 9.25 L 27.900391 9.25 A 0.750075 0.750075 0 0 0 28.583984 8.8085938 C 28.724973 8.4958877 28.888557 8.1946568 29.074219 7.90625 A 0.75 0.75 0 0 0 28.849609 6.8691406 A 0.75 0.75 0 0 0 28.435547 6.75 z M 17.488281 26.75 C 17.255358 26.75 17.022871 26.785247 16.798828 26.857422 A 0.750075 0.750075 0 0 0 16.796875 26.859375 C 16.158805 27.066481 15.65202 27.545522 15.40625 28.166016 A 0.750075 0.750075 0 0 0 15.404297 28.169922 C 15.301545 28.432845 15.251472 28.709115 15.25 28.984375 A 0.750075 0.750075 0 0 0 15.25 28.988281 L 15.25 35.984375 C 13.852268 36.131277 11.077925 36.423376 10.144531 36.521484 C 8.5057683 36.692757 7.25 38.086816 7.25 39.734375 L 7.25 55.75 L 6 55.75 A 0.75 0.75 0 0 0 5.25 56.5 A 0.75 0.75 0 0 0 6 57.25 L 58 57.25 A 0.75 0.75 0 0 0 58.75 56.5 A 0.75 0.75 0 0 0 58 55.75 L 56.75 55.75 L 56.75 35.212891 C 56.75 34.297243 56.360906 33.422732 55.679688 32.810547 C 54.999533 32.197507 54.09042 31.903139 53.181641 31.998047 C 52.292506 32.091542 49.978782 32.333713 48.75 32.462891 L 48.75 28.988281 A 0.750075 0.750075 0 0 0 48.75 28.982422 C 48.748543 28.746333 48.712191 28.506566 48.632812 28.271484 C 48.409219 27.609829 47.891923 27.091189 47.230469 26.867188 L 47.228516 26.867188 C 46.995485 26.788219 46.753324 26.75 46.511719 26.75 L 43.488281 26.75 C 43.255358 26.75 43.022871 26.785247 42.798828 26.857422 A 0.750075 0.750075 0 0 0 42.796875 26.859375 C 42.158805 27.066481 41.65202 27.545522 41.40625 28.166016 A 0.750075 0.750075 0 0 0 41.404297 28.169922 C 41.301545 28.432845 41.251472 28.709115 41.25 28.984375 A 0.750075 0.750075 0 0 0 41.25 28.988281 L 41.25 33.251953 C 39.237304 33.463504 37.939912 33.599914 35.75 33.830078 L 35.75 28.988281 A 0.750075 0.750075 0 0 0 35.75 28.982422 C 35.748543 28.746333 35.712191 28.506566 35.632812 28.271484 C 35.409219 27.609829 34.891923 27.091189 34.230469 26.867188 L 34.228516 26.867188 C 33.995485 26.788219 33.753324 26.75 33.511719 26.75 L 30.488281 26.75 C 30.255358 26.75 30.022871 26.785247 29.798828 26.857422 A 0.750075 0.750075 0 0 0 29.796875 26.859375 C 29.158805 27.066481 28.65202 27.545522 28.40625 28.166016 A 0.750075 0.750075 0 0 0 28.404297 28.169922 C 28.301545 28.432845 28.251472 28.709115 28.25 28.984375 A 0.750075 0.750075 0 0 0 28.25 28.988281 L 28.25 34.619141 C 23.680135 35.099423 20.153344 35.470437 16.75 35.828125 L 16.75 28.992188 L 16.75 28.988281 C 16.750971 28.89238 16.768849 28.801723 16.800781 28.71875 C 16.878835 28.521688 17.058417 28.350377 17.257812 28.285156 C 17.33177 28.261331 17.409204 28.25 17.488281 28.25 L 20.511719 28.25 C 20.593472 28.25 20.675649 28.264457 20.748047 28.289062 C 20.955931 28.359313 21.140687 28.544069 21.210938 28.751953 C 21.234807 28.823274 21.249075 28.90266 21.25 28.988281 L 21.25 33 A 0.75 0.75 0 0 0 22 33.75 A 0.75 0.75 0 0 0 22.75 33 L 22.75 28.988281 A 0.750075 0.750075 0 0 0 22.75 28.982422 C 22.748543 28.746333 22.712192 28.506566 22.632812 28.271484 C 22.409219 27.609829 21.891923 27.091189 21.230469 26.867188 L 21.228516 26.867188 C 20.995485 26.788219 20.753324 26.75 20.511719 26.75 L 17.488281 26.75 z M 30.488281 28.25 L 33.511719 28.25 C 33.593472 28.25 33.675649 28.264457 33.748047 28.289062 C 33.955931 28.359313 34.140687 28.544069 34.210938 28.751953 C 34.234807 28.823274 34.249075 28.90266 34.25 28.988281 L 34.25 33.988281 C 32.440398 34.178472 31.557477 34.270975 29.75 34.460938 L 29.75 28.992188 L 29.75 28.988281 C 29.750971 28.89238 29.768849 28.801723 29.800781 28.71875 C 29.878835 28.521688 30.058417 28.350377 30.257812 28.285156 C 30.33177 28.261331 30.409204 28.25 30.488281 28.25 z M 43.488281 28.25 L 46.511719 28.25 C 46.593472 28.25 46.675649 28.264457 46.748047 28.289062 C 46.955931 28.359313 47.140687 28.544069 47.210938 28.751953 C 47.234807 28.823274 47.249075 28.90266 47.25 28.988281 L 47.25 32.621094 C 45.903868 32.762601 44.335517 32.927095 42.75 33.09375 L 42.75 28.992188 L 42.75 28.988281 C 42.750971 28.89238 42.768849 28.801723 42.800781 28.71875 C 42.878835 28.521688 43.058417 28.350377 43.257812 28.285156 C 43.33177 28.261331 43.409204 28.25 43.488281 28.25 z M 53.337891 33.490234 C 53.826539 33.439202 54.312075 33.597609 54.675781 33.925781 A 0.750075 0.750075 0 0 0 54.677734 33.925781 C 55.042515 34.253596 55.25 34.720538 55.25 35.212891 L 55.25 55.75 L 8.75 55.75 L 8.75 39.734375 C 8.75 38.841934 9.4135446 38.1064 10.300781 38.013672 C 16.109171 37.403156 30.629414 35.876577 42.072266 34.673828 C 44.233237 34.44669 46.334093 34.225692 48.072266 34.042969 C 49.597666 33.882613 52.281391 33.601329 53.337891 33.490234 z M 51.689453 35.466797 C 51.53091 35.453472 51.369338 35.457535 51.208984 35.478516 C 49.75962 35.670431 47.902344 35.916016 47.902344 35.916016 A 0.75 0.75 0 0 0 47.255859 36.755859 A 0.75 0.75 0 0 0 48.097656 37.402344 C 48.097656 37.402344 49.954032 37.15883 51.404297 36.966797 C 51.618884 36.93872 51.834054 37.00445 51.996094 37.146484 C 52.15802 37.28842 52.25 37.490309 52.25 37.707031 L 52.25 42.5 A 0.75 0.75 0 0 0 53 43.25 A 0.75 0.75 0 0 0 53.75 42.5 L 53.75 37.707031 C 53.75 37.059753 53.470449 36.443643 52.984375 36.017578 C 52.619905 35.698104 52.165084 35.506771 51.689453 35.466797 z M 12.939453 40.75 C 12.152874 40.75 11.5 41.402874 11.5 42.189453 L 11.5 45.078125 C 11.5 45.459692 11.652304 45.825146 11.919922 46.09375 C 11.919922 46.09375 11.921875 46.09375 11.921875 46.09375 C 11.921875 46.09375 11.921875 46.095703 11.921875 46.095703 C 12.193408 46.368322 12.560529 46.517578 12.939453 46.517578 L 15.4375 46.517578 C 16.10422 46.517578 16.694352 46.048563 16.841797 45.396484 C 17.006646 44.67015 17.302969 43.366156 17.498047 42.507812 C 17.594059 42.08202 17.492324 41.633506 17.21875 41.291016 C 16.945898 40.94943 16.52994 40.75 16.09375 40.75 L 12.939453 40.75 z M 20.224609 40.75 C 19.556336 40.75 18.967682 41.219349 18.820312 41.871094 A 0.75 0.75 0 0 0 19.386719 42.767578 A 0.75 0.75 0 0 0 20.269531 42.25 L 22.75 42.25 L 22.75 45.017578 L 19.59375 45.017578 A 0.75 0.75 0 0 0 18.5625 44.919922 A 0.75 0.75 0 0 0 18.441406 45.974609 C 18.715272 46.320102 19.130134 46.517578 19.566406 46.517578 L 22.810547 46.517578 C 23.189471 46.517578 23.556592 46.368322 23.828125 46.095703 L 23.830078 46.09375 C 24.097696 45.825146 24.25 45.459692 24.25 45.078125 L 24.25 42.189453 C 24.25 41.806904 24.098272 41.442022 23.828125 41.171875 C 23.557978 40.901728 23.193096 40.75 22.810547 40.75 L 20.224609 40.75 z M 13 42.25 L 16.017578 42.25 C 15.825939 43.09308 15.550926 44.302818 15.388672 45.017578 L 13 45.017578 L 13 42.25 z M 53 45.482422 A 0.75 0.75 0 0 0 52.25 46.232422 L 52.25 47.5 A 0.75 0.75 0 0 0 53 48.25 A 0.75 0.75 0 0 0 53.75 47.5 L 53.75 46.232422 A 0.75 0.75 0 0 0 53 45.482422 z M 20.064453 47.75 C 19.277874 47.75 18.625 48.402874 18.625 49.189453 L 18.625 52.078125 C 18.625 52.459692 18.777304 52.825146 19.044922 53.09375 C 19.044922 53.09375 19.046875 53.09375 19.046875 53.09375 C 19.046875 53.09375 19.046875 53.095703 19.046875 53.095703 C 19.318408 53.368322 19.685529 53.517578 20.064453 53.517578 L 22.5625 53.517578 C 23.22922 53.517578 23.819352 53.048563 23.966797 52.396484 C 24.131646 51.67015 24.427969 50.366156 24.623047 49.507812 C 24.719059 49.08202 24.617324 48.633506 24.34375 48.291016 C 24.070898 47.94943 23.65494 47.75 23.21875 47.75 L 20.064453 47.75 z M 27.349609 47.75 C 26.681336 47.75 26.092682 48.219349 25.945312 48.871094 C 25.780405 49.596687 25.484141 50.89947 25.289062 51.757812 A 0.750075 0.750075 0 0 0 25.289062 51.761719 C 25.193882 52.185893 25.296648 52.633474 25.568359 52.974609 C 25.568359 52.974609 25.568359 52.976562 25.568359 52.976562 C 25.842244 53.320718 26.256044 53.517578 26.691406 53.517578 L 29.935547 53.517578 C 30.314471 53.517578 30.681592 53.368322 30.953125 53.095703 L 30.955078 53.09375 C 31.222696 52.825146 31.375 52.459692 31.375 52.078125 L 31.375 49.189453 C 31.375 48.806904 31.223272 48.442022 30.953125 48.171875 C 30.682978 47.901728 30.318096 47.75 29.935547 47.75 L 27.349609 47.75 z M 20.125 49.25 L 23.142578 49.25 C 22.950939 50.09308 22.675926 51.302818 22.513672 52.017578 L 20.125 52.017578 L 20.125 49.25 z M 27.398438 49.25 L 29.875 49.25 L 29.875 52.017578 L 26.769531 52.017578 C 26.961171 51.174497 27.236238 49.963593 27.398438 49.25 z "/></svg>

<svg xmlns="http://www.w3.org/2000/svg" viewBox="0 0 64 81.25" fill-rule="evenodd" clip-rule="evenodd" stroke-linecap="round" stroke-linejoin="round" stroke-miterlimit="2"><path style="line-height:normal;font-variant-ligatures:normal;font-variant-position:normal;font-variant-caps:normal;font-variant-numeric:normal;font-variant-alternates:normal;font-variant-east-asian:normal;font-feature-settings:normal;font-variation-settings:normal;text-indent:0;text-align:start;text-decoration-line:none;text-decoration-style:solid;text-decoration-color:#000;text-transform:none;text-orientation:mixed;white-space:normal;shape-padding:0;shape-margin:0;inline-size:0;isolation:auto;mix-blend-mode:normal;solid-color:#000;solid-opacity:1;filter-blend-mode:normal;filter-gaussianBlur-deviation:0" d="M28.436 6.75a.75.75 0 00-.623.344c-.136.21-.24.436-.356.656H19c-3.705 0-6.726 3.007-6.75 6.707a.75.75 0 000 .004v.039c0 2.423 1.315 4.509 3.24 5.7-.22.496-.49.975-.49 1.55 0 2.2 1.8 4 4 4 1.366 0 2.487-.77 3.209-1.822.262.032.52.072.791.072 2.155 0 3.993-1.128 5.176-2.75h2.48c.03 2.479 2.056 4.5 4.541 4.5 1.586 0 2.892-.899 3.707-2.137.321.042.641.09.973.09 2.723 0 5.074-1.494 6.38-3.68h3.88a8.388 8.388 0 007.05-12.93.75.75 0 00-1.037-.224.75.75 0 00-.224 1.037 6.886 6.886 0 01-5.79 10.617h-4.261a.75.75 0 00-.668.409 5.978 5.978 0 01-6.418 3.172.75.75 0 00-.021-.004.75.75 0 00-.065-.01s-.054.016-.426-.182c-.371-.198-.965-.602-1.73-1.42a.75.75 0 00-.516-.238.75.75 0 00-.543.203.75.75 0 00-.035 1.059c.828.884 1.521 1.39 2.05 1.681a3.04 3.04 0 01-2.306 1.057 3.044 3.044 0 01-2.996-3.625.75.75 0 00-.795-.89c-.133.01-.27.015-.406.015h-2.02c.117-.63.107-1.484-.277-2.512a.75.75 0 00-.74-.488.75.75 0 00-.225.047.75.75 0 00-.441.965c.318.85.284 1.434.2 1.804-.085.371-.18.47-.18.47a.75.75 0 00-.016.02.75.75 0 00-.022.032.75.75 0 00-.011.016.75.75 0 00-.002.003 4.993 4.993 0 01-5.194 2.307.75.75 0 00-.816.412A2.498 2.498 0 0119 24.25a2.49 2.49 0 01-2.5-2.5c0-.539.168-1.03.455-1.438a.75.75 0 00-.281-1.103A5.246 5.246 0 0113.75 14.5v-.039A5.238 5.238 0 0119 9.25h8.9a.75.75 0 00.684-.441 7.03 7.03 0 01.49-.903.75.75 0 00-.224-1.037.75.75 0 00-.414-.119zm-10.948 20c-.233 0-.465.035-.69.107a.75.75 0 00-.001.002 2.237 2.237 0 00-1.39 1.307.75.75 0 00-.003.004c-.102.263-.153.54-.154.814a.75.75 0 000 .004v6.996c-1.398.147-4.172.44-5.105.537a3.24 3.24 0 00-2.895 3.213V55.75H6a.75.75 0 00-.75.75.75.75 0 00.75.75h52a.75.75 0 00.75-.75.75.75 0 00-.75-.75h-1.25V35.213a3.231 3.231 0 00-3.568-3.215l-4.432.465v-3.475a.75.75 0 000-.006 2.237 2.237 0 00-1.52-2.115h-.001a2.232 2.232 0 00-.717-.117h-3.024c-.233 0-.465.035-.69.107a.75.75 0 00-.001.002 2.237 2.237 0 00-1.39 1.307.75.75 0 00-.003.004c-.102.263-.153.54-.154.814a.75.75 0 000 .004v4.264l-5.5.578v-4.842a.75.75 0 000-.006 2.237 2.237 0 00-1.52-2.115h-.001a2.232 2.232 0 00-.717-.117h-3.024c-.233 0-.465.035-.69.107a.75.75 0 00-.001.002 2.237 2.237 0 00-1.39 1.307.75.75 0 00-.003.004c-.102.263-.153.54-.154.814a.75.75 0 000 .004v5.631l-11.5 1.21v-6.842a.77.77 0 01.05-.27.772.772 0 01.458-.433.75.75 0 01.23-.035h3.024c.081 0 .164.014.236.04a.77.77 0 01.463.462.77.77 0 01.039.236V33a.75.75 0 00.75.75.75.75 0 00.75-.75v-4.012a.75.75 0 000-.006 2.237 2.237 0 00-1.52-2.115h-.001a2.232 2.232 0 00-.717-.117h-3.024zm13 1.5h3.024c.081 0 .164.014.236.04a.77.77 0 01.463.462.77.77 0 01.039.236v5l-4.5.473v-5.473a.77.77 0 01.05-.27.772.772 0 01.458-.433.75.75 0 01.23-.035zm13 0h3.024c.081 0 .164.014.236.04a.77.77 0 01.463.462.77.77 0 01.039.236v3.633l-4.5.473v-4.106a.77.77 0 01.05-.27.772.772 0 01.458-.433.75.75 0 01.23-.035zm9.85 5.24c.489-.05.974.108 1.338.436a.75.75 0 00.002 0c.365.328.572.795.572 1.287V55.75H8.75V39.734a1.72 1.72 0 011.55-1.72l31.772-3.34 6-.631 5.266-.553zm-1.649 1.977a2.254 2.254 0 00-.48.012l-3.307.437a.75.75 0 00-.646.84.75.75 0 00.842.646s1.856-.243 3.306-.435a.75.75 0 01.846.74V42.5a.75.75 0 00.75.75.75.75 0 00.75-.75v-4.793a2.248 2.248 0 00-2.06-2.24zM12.94 40.75a1.45 1.45 0 00-1.439 1.44v2.888c0 .382.152.747.42 1.016h.002v.002c.271.272.639.422 1.017.422h2.498a1.45 1.45 0 001.405-1.122l.656-2.888a1.442 1.442 0 00-1.404-1.758H12.94zm7.286 0c-.669 0-1.257.47-1.405 1.121a.75.75 0 00.567.897.75.75 0 00.883-.518h2.48v2.768h-3.156a.75.75 0 00-1.032-.098.75.75 0 00-.12 1.055c.273.345.688.543 1.124.543h3.245c.378 0 .746-.15 1.017-.422l.002-.002a1.44 1.44 0 00.42-1.016V42.19a1.437 1.437 0 00-1.44-1.439h-2.585zM13 42.25h3.018l-.63 2.768H13V42.25zm40 3.232a.75.75 0 00-.75.75V47.5a.75.75 0 00.75.75.75.75 0 00.75-.75v-1.268a.75.75 0 00-.75-.75zM20.064 47.75a1.45 1.45 0 00-1.439 1.44v2.888c0 .382.152.747.42 1.016h.002v.002c.271.272.639.422 1.017.422h2.498a1.45 1.45 0 001.405-1.122l.656-2.888a1.442 1.442 0 00-1.404-1.758h-3.155zm7.286 0c-.669 0-1.257.47-1.405 1.121l-.656 2.887a.75.75 0 000 .004c-.095.424.008.871.28 1.213v.002c.273.344.687.54 1.122.54h3.245c.378 0 .746-.149 1.017-.421l.002-.002a1.44 1.44 0 00.42-1.016V49.19a1.437 1.437 0 00-1.44-1.439H27.35zm-7.225 1.5h3.018l-.63 2.768h-2.388V49.25zm7.273 0h2.477v2.768H26.77l.628-2.768z" color="#000" font-weight="400" font-family="sans-serif" clip-rule="nonzero" overflow="visible" fill-rule="nonzero"/></svg>
